X: 17
T:Gavotte de Scriginac
M:2/4
L:1/8
Q:100
S:Gerald Trimble's "First Flight"
K:A
ed|:ed cB|Ac ec|de f2|e2 ed| ed cB|Ac ec|de f2|1e2 ed:|2e2 ea||
ag fg|f2 ef|ed cd|B2 cd|ef ed|c2 BA|GA B2|1A2 ea:|2A2 ed||

